addons/godot-flexbox/assets/light/AlignItemsEndColumnIcon.svg

<svg data-wf-icon="AlignItemsEndColumnIcon" width="16" height="16" viewBox="0 0 24 24" fill="none" xmlns="http://www.w3.org/2000/svg"><path d="M24 0H22.5V24H24V0Z" fill="#474747"></path><path d="M9 4.5H21V10.5H9V4.5Z" fill="#474747"></path><path d="M12 12H21V18H12V12Z" fill="#474747"></path></svg>

<svg xmlns="http://www.w3.org/2000/svg" width="16" height="16" fill="none" data-wf-icon="AlignItemsEndColumnIcon" viewBox="0 0 24 24"><path fill="#474747" d="M24 0h-1.5v24H24V0ZM9 4.5h12v6H9v-6ZM12 12h9v6h-9v-6Z"/></svg>
